X:35
T:Gander in the Pratie Hole
C:Traditional
M:6/8
R:jig
K:Dmix
FAD FAD | GFG EFG | FAD FAD | GED D3 |
FAD FAD | GFG EFG | fed cAG | FDD D3 :|
|: Add ded | cAB cBA | Add ded | cAB c2c |
Add ded | cAB cde | fed cAG | FDD D3 :|

